X:1
T:Title
%%score 1 2
L:1/8
Q:1/4=105
M:2/4
K:F
V:1 treble nm="Grand Piano, Soprano"
V:2 bass nm="Choir Pad, Croatia, LM"
V:1
 [CF]2 [CF]2 | D C2 D | [DF]2 [FA]2 | [Fc]4 | [Fd]2 [Ff]2 | [Fc] [FA]2 F | [FA]2 [FG]2 | [EG]4 | %8
w: By~Edna~Randolph~Worrell,~1908 *||||||||
 [CF]2 [CF]2 | D C2 D | [CF]2 [FA]2 | [Fc]4 | [Fd]2 [Ff]2 | [Fc] [FA]2 F | [FA]2 [CG]2 | [CF]4- | %16
w: ||||||||
 [CF]4 |] %17
w: |
V:2
 [F,A,]2 [F,A,]2 | [F,B,] [F,A,]2 [F,B,] | [F,A,]2 [F,C]2 | [F,A,]4 | B,2 [B,D]2 | %5
 [A,C] [A,C]2 [A,C] | [G,=B,]2 [G,B,]2 | [C,C]4 | [F,A,]2 [F,A,]2 | [F,B,] [F,A,]2 [F,B,] | %10
 [F,A,]2 [F,C]2 | [F,A,]4 | [B,,B,]2 [=B,,_A,]2 | [C,A,] [C,C]2 [D,=B,] | [C,C]2 [C,B,]2 | %15
 [F,A,]4- | [F,A,]4 |] %17

